/* XPM */
static char * obstacle_xpm[] = {
"48 48 21 1",
" 	c #81BA44",
".	c #4E8400",
"+	c #C1F27A",
"@	c #9FDF5B",
"#	c #122020",
"$	c #FEF3C0",
"%	c #14A02E",
"&	c #91E550",
"*	c #59C135",
"=	c #24523B",
"-	c #FAD6B8",
";	c #72C135",
">	c #1A7A3E",
",	c #1B392D",
"'	c #F5A097",
")	c #FBFF86",
"!	c #669536",
"~	c #F9C325",
"{	c #3D6904",
"]	c #7D3530",
"^	c #9D443D",
"                                                ",
"                                                ",
"                                                ",
"    .   .          ++@           .              ",
"     . .            +@@  @++      .  .          ",
"     . .           ..@@ @@+       . .           ",
"                    ..  @@..        .           ",
"                         ..                     ",
"                  ######   ####                 ",
"             ## ###$%$%&# #****#           @++  ",
"            #**#%%%=$=%**#%***#  ##       @@+   ",
"             #%&%%*%=*%%*%%%**###**#      @@..  ",
"           .#%*%%***%***%*****%*%%*#       ..   ",
"           #*%*****%**%%%**-*-***%&#            ",
"          #&;*%*****&*&*%**>$>*%*&,=#           ",
"         #%$**%%&-%-%&*%**%%>*&&**$=$#          ",
"         #%,*****>$>%**%***%%*&**%=$,#          ",
"         #%%****&-=-*>>****%%%*%%%%,%#  @++     ",
"          #%%%**>=%=*>%%*%*****%%=&*#  @@+      ",
"        ##*****%>*%%%****%%%**&$==%>#@ @@..     ",
"       #&*%%>*%>**%%%&%%%%>>*%$,===,,#  ..      ",
"       #%%%%>>%****%&*&%%%>*%>,$=%%%=#          ",
"        #>=>>>%>>%*%*%*%%%*%%>>,%*>>,#          ",
"        #>=$>>%>>%*%-%-%%%*%%>>=%*>>,#          ",
"        #=>,$>%>>%%>,-,%%**%%>>=%>>>=,#         ",
"        #>>=,>>,,>%==,>%%%>>,,==>>>>=>#         ",
"         #=,>>=>,,>==>>%==,,=%%>-=,=,=#     ++@ ",
"        #=>=>>%%%==>%==%=====>%','==,,#      +@@",
"        #=====,,%%%%%>=>>%%===%,,,=,,#      ..@@",
"         #=====,,=%,-%>=>==%=>%%,,=,#.       .. ",
"          #=>,,=,,,','===,%%=>=,,==#            ",
"           #==>=,>===,>>,,,,>=====,#            ",
"           #=>=====>=>,>===,,,==,,#             ",
"            #=,,==,=>,,==,,====,,#      )       ",
"            !###,,,=>========,,,#!     )~)      ",
"           !!!!!##,,,,=,,,,,,,,#!!!    .).      ",
"          !!!!!!!!#############!!!!{    .       ",
"        .  !!!!!!!!!{]{!!!!!!!!!!!!{            ",
"       .     !!!!!!!!{!!!!!!!!!!!!!             ",
"   .   .         !!!!!!!!!   !!                 ",
"    .                                        )  ",
"    .                                       )~) ",
"                 .           ^      )       .). ",
"                  .  .      ^~^    )~)       .  ",
"              .   . .       .^.    .).     .    ",
"               .    .        .      .     .     ",
"               .                          .     ",
"                                                "};
