/* XPM */
static char * closed_chest_xpm[] = {
"48 48 17 1",
" 	c #81BA44",
".	c #4E8400",
"+	c #C1F27A",
"@	c #9FDF5B",
"#	c #3C204B",
"$	c #AE6F09",
"%	c #FFEA84",
"&	c #621936",
"*	c #FFFFFF",
"=	c #FFCB42",
"-	c #881221",
";	c #AE0C0C",
">	c #CD8F27",
",	c #FBFF86",
"'	c #F9C325",
")	c #595652",
"!	c #9D443D",
"                                                ",
"                                                ",
"                                                ",
"    .   .          ++@           .              ",
"     . .            +@@  @++      .  .          ",
"     . .           ..@@ @@+       . .           ",
"                    ..  @@..        .           ",
"                         ..                     ",
"                                                ",
"                                           @++  ",
"                                          @@+   ",
"                                          @@..  ",
"           .                               ..   ",
"            .                                   ",
"            .         ####                      ",
"           #      #####$$#####      #           ",
"          #%#  ###&&&&#$$#&&&&###  #%#          ",
"          #*###&&&&&&&#==#&&&&&&&###*#  @++     ",
"          #*#&&&&&----#==#----&&&&&#*# @@+      ",
"          #%#---------#%%#---------#%# @@..     ",
"          #%#------;;;#**#;;;------#%#  ..      ",
"          #%#;;;;;;;;;#%%#;;;;;;;;;#%#          ",
"          #%%#;;;;;;;;#==#;;;;;;;;#%%#          ",
"           #=#;;;;;;--#==#--;;;;;;#=#           ",
"           #=#--------####--------#=#           ",
"           #=#--------#%*#--------#=#           ",
"           #=#&&&&&&&#%==%#&&&&&&&#=#       ++@ ",
"           #%#########=##=#########%# .      +@@",
"           #*%%%=====#=$#=#=====%%%*#.      ..@@",
"           ###########=>#=###########.       .. ",
"            #$#&&&&&&#>>>>#&&&&&&#$#            ",
"            #>#------&####&------#>#            ",
"            #>#;;;;;;-#$$#-;;;;;;#>#            ",
"            #=#;;;;;;;#>>#;;;;;;;#=#    ,       ",
"            #=####################=#   ,',      ",
"            #======================#   .,.      ",
"            ########################    .       ",
"        .  #%=#))))))))))))))))))#=%#           ",
"       .   ###)      .           )###           ",
"   .   .                                        ",
"    .                                        ,  ",
"    .                                       ,', ",
"                 .           !      ,       .,. ",
"                  .  .      !'!    ,',       .  ",
"              .   . .       .!.    .,.     .    ",
"               .    .        .      .     .     ",
"               .                          .     ",
"                                                "};
