/* XPM */
static char * Grass_xpm[] = {
"48 48 7 1",
" 	c #81BA44",
".	c #4E8400",
"+	c #C1F27A",
"@	c #9FDF5B",
"#	c #FBFF86",
"$	c #F9C325",
"%	c #9D443D",
"                                                ",
"                                                ",
"                                                ",
"    .   .          ++@           .              ",
"     . .            +@@  @++      .  .          ",
"     . .           ..@@ @@+       . .           ",
"                    ..  @@..        .           ",
"                         ..                     ",
"                                                ",
"                                           @++  ",
"                                          @@+   ",
"                                          @@..  ",
"           .                               ..   ",
"            .                                   ",
"            .                                   ",
"                                                ",
"                                                ",
"                            @++         @++     ",
"                           @@+    ++@  @@+      ",
"                           @@..    +@@ @@..     ",
"                    .       ..    ..@@  ..      ",
"                    .              ..           ",
"                                                ",
"                                                ",
"                                                ",
"                                                ",
"                        @++                 ++@ ",
"                  ++@  @@+            .      +@@",
"                   +@@ @@..          .      ..@@",
"                  ..@@  ..           .       .. ",
"                   ..                           ",
"                                                ",
"                                                ",
"                                        #       ",
"                             .         #$#      ",
"                     %        .        .#.      ",
"                    %$%       .    .    .       ",
"        .           .%.            .            ",
"       .             .                          ",
"   .   .                                        ",
"    .                                        #  ",
"    .                                       #$# ",
"                 .           %      #       .#. ",
"                  .  .      %$%    #$#       .  ",
"              .   . .       .%.    .#.     .    ",
"               .    .        .      .     .     ",
"               .                          .     ",
"                                                "};
