/* XPM */
static char * key_xpm[] = {
"48 48 10 1",
" 	c #81BA44",
".	c #4E8400",
"+	c #C1F27A",
"@	c #9FDF5B",
"#	c #000000",
"$	c #FF8F00",
"%	c #FFB300",
"&	c #FBFF86",
"*	c #F9C325",
"=	c #9D443D",
"                                                ",
"                                                ",
"                                                ",
"    .   .          ++@           .              ",
"     . .            +@@  @++      .  .          ",
"     . .           ..@@ @@+       . .           ",
"                    ..  @@..        .           ",
"                         ..                     ",
"                                                ",
"                                           @++  ",
"                                          @@+   ",
"                         #######          @@..  ",
"           .            #$$$%%%%#          ..   ",
"            .          #$%%%%%%%%#              ",
"            .         #$%%%%%%%%%%#             ",
"                      #$%%%###$%%%#             ",
"                      #$%%#   #$%%#             ",
"                      #$%%# @+#$%%#     @++     ",
"                      #$%%#@@+#$%%#+@  @@+      ",
"                      #$%%%###$%%%#+@@ @@..     ",
"                    .  #$%%%%%%%%%#.@@  ..      ",
"                    . #$%%%%%%%%%# ..           ",
"                     #$%%#$$$%%%#               ",
"                    #$%%# ######                ",
"                   #$%%#                        ",
"                  #$%%#                         ",
"                 #$%%#  @++                 ++@ ",
"                #$%%#  @@+            .      +@@",
"               #$%%%$# @@..          .      ..@@",
"              #$%%%%%$# ..           .       .. ",
"             #$%%%%##$#                         ",
"            #$%%%%#  #                          ",
"           #$%%%%$$#                            ",
"           #$%%%##$#                    &       ",
"            #$%#  #          .         &*&      ",
"             #$$#    =        .        .&.      ",
"              #$#   =*=       .    .    .       ",
"        .      #    .=.            .            ",
"       .             .                          ",
"   .   .                                        ",
"    .                                        &  ",
"    .                                       &*& ",
"                 .           =      &       .&. ",
"                  .  .      =*=    &*&       .  ",
"              .   . .       .=.    .&.     .    ",
"               .    .        .      .     .     ",
"               .                          .     ",
"                                                "};
