/* XPM */
static char * open_chest_xpm[] = {
"48 48 20 1",
" 	c #81BA44",
".	c #4E8400",
"+	c #C1F27A",
"@	c #9FDF5B",
"#	c #3C204B",
"$	c #CD8F27",
"%	c #FFCB42",
"&	c #621936",
"*	c #FFEA84",
"=	c #881221",
"-	c #FFFFFF",
";	c #AE0C0C",
">	c #AE6F09",
",	c #5D3E1D",
"'	c #322F7C",
")	c #3F3F74",
"!	c #FBFF86",
"~	c #F9C325",
"{	c #595652",
"]	c #9D443D",
"                                                ",
"                                                ",
"                                                ",
"    .   .          ++@           .              ",
"     . .            +@@  @++      .  .          ",
"     . .           ..@@ @@+       . .           ",
"                    ..  @@..        .           ",
"                         ..                     ",
"                      ####                      ",
"           #      #####$$#####      #      @++  ",
"          #%######&&&&#$$#&&&&######%#    @@+   ",
"          #*#&&&&&&&&&#$$#&&&&&&&&&#*#    @@..  ",
"          #*#=========#%%#=========#*#     ..   ",
"          #-#=========#%%#=========#-#          ",
"          #-#;;;;;;;;;#**#;;;;;;;;;#-#          ",
"          #-*#;;;;;;;;#**#;;;;;;;;#*-#          ",
"           #*#========####========#*#           ",
"           #*#========#*-#========#*#   @++     ",
"           #*#&&&&&&&#*%%*#&&&&&&&#*#  @@+      ",
"           #*#########%##%#########*#@ @@..     ",
"           #-***%%%%%#%>#%#%%%%%***-#@  ..      ",
"           ###########%$#%###########           ",
"            ##########$$$$##########            ",
"            #,####''''####''''####,#            ",
"            #,##''''))))))))''''##,#            ",
"            #>#'''))))))))))))'''#>#            ",
"            #>#''))))))))))))))''#>#        ++@ ",
"            #$####################$#  .      +@@",
"            #$$$$$$$$>#,,#>$$$$$$$$# .      ..@@",
"            #>####################># .       .. ",
"            #>#&&&&&&&#>>#&&&&&&&#>#            ",
"            #$#=======#$$#=======#$#            ",
"            #$#;;;;;;;#$$#;;;;;;;#$#            ",
"            #%#;;;;;;;#$$#;;;;;;;#%#    !       ",
"            #%####################%#   !~!      ",
"            #%%%%%%%%%%%%%%%%%%%%%%#   .!.      ",
"            ########################    .       ",
"        .  #*%#{{{{{{{{{{{{{{{{{{#%*#           ",
"       .   ###{      .           {###           ",
"   .   .                                        ",
"    .                                        !  ",
"    .                                       !~! ",
"                 .           ]      !       .!. ",
"                  .  .      ]~]    !~!       .  ",
"              .   . .       .].    .!.     .    ",
"               .    .        .      .     .     ",
"               .                          .     ",
"                                                "};
