/* XPM */
static char * shroomie_xpm[] = {
"48 48 18 1",
" 	c #81BA44",
".	c #4E8400",
"+	c #C1F27A",
"@	c #9FDF5B",
"#	c #FFFFFF",
"$	c #751C1C",
"%	c #D23232",
"&	c #FCF2DE",
"*	c #D0C8B7",
"=	c #A72828",
"-	c #7A705B",
";	c #BDAE8D",
">	c #000000",
",	c #FFFBF4",
"'	c #EEDBB1",
")	c #FBFF86",
"!	c #F9C325",
"~	c #9D443D",
"                                                ",
"                                                ",
"                                                ",
"    .   .          ++@           .              ",
"     . .            +@@  @++      .  .          ",
"     . .           #########      . .           ",
"                ###$$$$$$$$$###     .           ",
"             ###$$$%%%%%%%%%$$$###              ",
"           ##$$$%%%%%%%%%%%%%%&$$$##            ",
"         ##$$&&&%%%%%%%%%%%%%%%&&&$$##     @++  ",
"        #$$&&&&&%%%%%%%%%%%%%%%%%%%%$$#   @@+   ",
"       #$%%&&&&&%%%%%%%%%&&&%%%%%%%%%%$#  @@..  ",
"      #$%%%%&&&%%%%%%%%%&&&&&%%%%%%%%%%$#  ..   ",
"      #$%%%%%%%%%%%%%%%%&&&&&%%%%%%%%%&$#       ",
"     #$%%%%%%%%%%%%%%%%%&&&&&%%%%%%%%&&&$#      ",
"     #$%%%%%%%%%%%%%%%%%%&&&%%%%%%%%%&&&$#      ",
"    #$%%%%%%%%%%%%%%%%%%%%%%%%%%%%%%%&&&&$#     ",
"    #$%%%%%%%%%%%%%%%%%%%%%%%%%%%%%%%%&&&$#     ",
"    #$%%%%%%%%%%%%%%%%%%%%%%%%%%%%%%%%%%%$#     ",
"    #$%%%%%%%%%%%%%%%%%%%%%%%%%%%%%%%%%%%$#     ",
"    #$%%%%%%%%%%%%%&&&%%%%%%%%%%%%%%%%%%%$#     ",
"    #$%&&&%%%%%%%%&&&&&%%%%%%%%%%%%%%%%%%$#     ",
"    #$*&&&&%%%%%%%&&&&&%%%%%%%%%%%&&&%%%=$#     ",
"     #$*&&&%%%%%%%&&&&&%%%%%%%%%%&&&&&%=$#      ",
"     #$**&&%%%%%%%%&&&%%%%%%%%%%%&&&&*==$#      ",
"      #$**====%%%%%%%%%%%%%%%%%%%*****=$#       ",
"       #$=========================***=$#    ++@ ",
"        #$$=========================$$#      +@@",
"         ##$$$$$$$$$$$$$$$$$$$$$$$$$##      ..@@",
"           ##-;;;;;;;;;;;;;;;;;;;-## .       .. ",
"            #-;;;;;;;;;>,;;;;;;,;-#             ",
"            #-'''''''''>>''''''>'-#             ",
"            #-'''''''''>>''''''>'-#             ",
"            #-''-''''''''''''''''-#     )       ",
"            #-''-''-'''''''''''''-#    )!)      ",
"            #-'';--;'''''''''''''-#    .).      ",
"            #-''';;''''''''''''''-#.    .       ",
"        .    #-'''''''''''''''''-# .            ",
"       .     #-''''''''''''''';--#              ",
"   .   .      #-'''''';;;;;;;;--#               ",
"    .         #-''''';----------#            )  ",
"    .          #-;;;;-###------#            )!) ",
"                #----#   #----#     )       .). ",
"                 ####.    ####~    )!)       .  ",
"              .   . .       .~.    .).     .    ",
"               .    .        .      .     .     ",
"               .                          .     ",
"                                                "};
